X:1
T:Tanqueray Maetinis, Oh!
M:4/4
L:1/4
K:F
 C| c c B B| _A F G G/2G/2| F F G G| _A F G G/2| G/2| c3/2 c/2 B B|\
 _A F G2| F3/2 A/2 c A| G G F3/2| C| c c B B| _A F G G/2G/2| F F G G/2G/2|\
 _A F G G/2| G/2| c3/2 c/2 B B| _A F G2| F3/2 A/2 c A| G G F3/2| c/2|\
 f3/2 f/2 e c| d B c2| d3/2 d/2 c A| B c G3/2| c/2| f3/2 f/2 e c/2c/2|\
 d B c2| F3/2 A/2 c A| G3/2 G/2 F3/2||

